src/resources/images/icons/book.svg

<svg width="32" height="32" viewBox="0 0 32 32" fill="none" xmlns="http://www.w3.org/2000/svg">
<path d="M31.6221 9.90554L18.8093 30.3149C18.3615 31.0282 17.376 31.3262 16.608 30.9807L0.914492 23.9195" stroke="#0F1031" stroke-width="0.365954" stroke-linecap="round"/>
<path d="M12.9378 1.73827C13.3453 1.08914 14.2423 0.817862 14.9412 1.13235L29.6747 7.76152C30.3736 8.07601 30.6099 8.85717 30.2024 9.50629L18.2003 28.6243C17.7928 29.2734 16.8958 29.5447 16.1968 29.2302L1.46335 22.601C0.764394 22.2865 0.528138 21.5054 0.935654 20.8562L12.9378 1.73827Z" fill="#334AFF" stroke="#0F1031" stroke-width="0.274085"/>
<path d="M17.785 6.93447C18.7085 5.08755 21.3357 4.16414 21.3357 4.16414L29.3788 7.69526C30.1603 8.03835 30.4244 8.90925 29.965 9.62836L25.4912 16.6308C25.4912 16.6308 21.5665 17.0925 18.7961 14.0913C16.0258 11.09 16.8616 8.78138 17.785 6.93447Z" fill="#4285F4"/>
<path d="M10.0618 18.964C13.4263 20.4916 14.9341 24.4422 13.423 27.7705L9.96875 26.2022C10.6244 24.7581 9.97018 23.0439 8.51038 22.3811C7.05042 21.7183 5.32947 22.354 4.67381 23.7981L1.21955 22.2298C2.73067 18.9015 6.69739 17.4365 10.0618 18.964Z" fill="#6677FF"/>
<path fill-rule="evenodd" clip-rule="evenodd" d="M15.4964 16.9035C15.1569 16.8533 14.868 16.7639 14.6894 16.6454C14.4584 16.4915 14.4185 16.3261 14.4414 16.2863C14.4579 16.258 14.5989 16.222 14.8856 16.3639C14.9305 16.3862 14.9772 16.411 15.024 16.4386C15.2118 16.5492 15.4027 16.7032 15.4964 16.9035ZM14.583 19.6328C13.415 19.3183 12.5036 18.4375 12.2612 17.3879C12.0896 16.6453 12.2891 15.9598 12.8084 15.5071C13.8531 14.5964 16.0632 14.9818 17.2198 15.6628C17.2322 15.6701 17.2446 15.6775 17.2567 15.6849C17.6844 15.9441 17.9215 16.224 17.8755 16.4155C17.8497 16.5226 17.6905 16.643 17.4497 16.7374C17.0248 16.904 16.4909 16.9673 15.9947 16.9522C15.9105 16.5513 15.5989 16.208 15.0904 15.9558C14.5241 15.6755 14.1775 15.8263 14.0419 16.061C13.8942 16.3169 13.9813 16.7336 14.4337 17.0349C14.7076 17.217 15.0972 17.329 15.5245 17.3804C15.4592 17.6054 15.2926 17.8529 15.0309 18.1108C14.9402 18.2002 14.939 18.3464 15.0285 18.4371C15.1178 18.5278 15.2639 18.5289 15.3548 18.4394C15.7104 18.089 15.924 17.7451 15.993 17.4127C16.5831 17.4249 17.1877 17.3357 17.6181 17.167C18.022 17.0087 18.2595 16.7921 18.3242 16.5234C18.3711 16.3282 18.3295 16.127 18.2053 15.9285C19.0986 14.4426 19.971 13.5666 20.2103 13.7055L20.2118 13.7064C20.2468 13.727 20.2896 13.7628 20.3136 13.8547C20.394 14.1612 20.2526 14.9292 19.1233 16.8472C18.009 18.7397 16.8983 20.2556 14.583 19.6328ZM15.2846 14.0977C15.2873 14.0926 15.2908 14.0881 15.2932 14.0827C15.2965 14.075 15.3001 14.0669 15.3036 14.059C15.5152 13.6342 15.7534 13.3415 15.9794 13.2423C16.0916 13.1931 16.1961 13.1929 16.3083 13.2417C16.4646 13.31 16.5612 13.4175 16.6045 13.572C16.6883 13.8713 16.5647 14.339 16.2955 14.7718C15.9163 14.6585 15.5088 14.5752 15.0986 14.5354C15.1571 14.3779 15.2195 14.2318 15.2846 14.0977ZM17.4051 14.4149C17.5252 14.3783 17.6414 14.3946 17.7605 14.4647C17.9499 14.5762 17.9957 14.6866 18.0138 14.76C18.057 14.9355 17.9883 15.1861 17.8111 15.5055C17.7175 15.4314 17.6126 15.3585 17.4954 15.2876C17.4821 15.2795 17.4688 15.2716 17.4552 15.2636C17.2758 15.1579 17.071 15.0583 16.8493 14.9678C17.0103 14.6742 17.2089 14.4747 17.4051 14.4149ZM20.7595 13.7338C20.7101 13.545 20.6014 13.3967 20.445 13.3046L20.4415 13.3026C19.9158 12.9973 19.2749 13.6725 18.8385 14.2068C18.7105 14.3637 18.5864 14.5276 18.4701 14.6885C18.4675 14.6752 18.4651 14.6617 18.4619 14.6486C18.4032 14.41 18.246 14.2139 17.9946 14.0659C17.7645 13.9304 17.5141 13.898 17.2706 13.9722C17.2011 13.9934 17.1333 14.0254 17.0667 14.0634C17.1027 13.8523 17.103 13.6421 17.0487 13.4479C16.9678 13.1594 16.7756 12.9419 16.492 12.8187C16.2635 12.7194 16.0221 12.7198 15.7937 12.82C15.7928 12.8205 15.7918 12.8211 15.7909 12.8215C16.2128 11.6066 16.5711 10.0507 15.8042 9.70023C15.6153 9.61423 15.4018 9.61741 15.1869 9.70937C14.1831 10.139 13.1177 12.5468 12.6464 13.9017C12.6097 14.0073 12.6542 14.1216 12.747 14.1762C12.76 14.1839 12.7738 14.1903 12.7886 14.1954C12.9089 14.2373 13.0404 14.1737 13.0822 14.0533C13.8714 11.7846 14.8297 10.3642 15.3685 10.1336C15.4951 10.0794 15.5687 10.1 15.613 10.1202C16.0364 10.3136 15.7071 11.9969 14.8787 13.8783C14.767 14.106 14.6799 14.3294 14.6184 14.5067C14.618 14.5075 14.618 14.5084 14.6177 14.5092C13.8175 14.5018 13.0473 14.6824 12.5047 15.1554C11.8527 15.7236 11.5999 16.5739 11.8111 17.488C12.0173 18.3803 12.6345 19.1653 13.476 19.6607C13.7787 19.8389 14.1106 19.9797 14.4626 20.0745C17.0881 20.7808 18.3532 19.0599 19.5205 17.0775C20.5191 15.3814 20.9128 14.319 20.7595 13.7338Z" fill="white"/>
<line x1="13.8553" y1="3.95215" x2="4.17443" y2="19.5532" stroke="white" stroke-width="0.304962" stroke-linecap="round"/>
</svg>

<svg xmlns="http://www.w3.org/2000/svg" fill="none" viewBox="0 0 32 32"><path stroke="#0F1031" stroke-linecap="round" stroke-width=".366" d="M31.622 9.906 18.81 30.315c-.448.713-1.433 1.011-2.201.666L.914 23.919"/><path fill="#334AFF" stroke="#0F1031" stroke-width=".274" d="M12.938 1.738c.407-.649 1.304-.92 2.003-.606l14.734 6.63c.699.314.935 1.095.527 1.744L18.2 28.624c-.407.65-1.304.92-2.003.606L1.463 22.601c-.699-.314-.935-1.096-.527-1.745L12.938 1.738Z"/><path fill="#4285F4" d="M17.785 6.934c.924-1.846 3.55-2.77 3.55-2.77l8.044 3.531c.781.343 1.045 1.214.586 1.933l-4.474 7.003s-3.924.462-6.695-2.54c-2.77-3.001-1.934-5.31-1.011-7.157Z"/><path fill="#67F" d="M10.062 18.964c3.364 1.528 4.872 5.478 3.361 8.806l-3.454-1.568c.655-1.444.001-3.158-1.459-3.82-1.46-.664-3.18-.028-3.836 1.416L1.22 22.23c1.51-3.329 5.477-4.794 8.842-3.266Z"/><path fill="#fff" fill-rule="evenodd" d="M15.496 16.904c-.34-.05-.628-.14-.807-.259-.23-.154-.27-.319-.248-.359.017-.028.158-.064.445.078.045.022.091.047.138.075.188.11.379.264.472.465Zm-.913 2.729c-1.168-.315-2.08-1.195-2.322-2.245-.171-.743.028-1.428.547-1.88 1.045-.912 3.255-.526 4.412.155l.037.022c.427.26.665.539.618.73-.025.108-.184.228-.425.322-.425.167-.96.23-1.455.215-.084-.4-.396-.744-.905-.996-.566-.28-.912-.13-1.048.105-.148.256-.06.673.392.974.274.182.663.294 1.09.345-.065.225-.231.473-.493.73a.23.23 0 1 0 .324.33c.355-.351.569-.695.638-1.027.59.012 1.195-.077 1.625-.246.404-.158.642-.375.706-.644.047-.195.005-.396-.119-.595.894-1.485 1.766-2.361 2.005-2.223l.002.001c.035.021.078.057.102.149.08.306-.061 1.074-1.19 2.992-1.115 1.893-2.226 3.409-4.541 2.786Zm.702-5.535.008-.015.01-.024c.212-.425.45-.717.676-.817a.386.386 0 0 1 .33 0 .49.49 0 0 1 .296.33c.083.3-.04.767-.31 1.2a6.366 6.366 0 0 0-1.196-.237 4.95 4.95 0 0 1 .186-.437Zm2.12.317a.425.425 0 0 1 .355.05c.19.111.236.222.254.295.043.175-.026.426-.203.745a3.057 3.057 0 0 0-.356-.241 4.704 4.704 0 0 0-.606-.296c.161-.294.36-.493.556-.553Zm3.354-.681a.684.684 0 0 0-.314-.43l-.003-.001c-.526-.306-1.167.37-1.604.904-.128.157-.252.32-.368.481l-.008-.04c-.059-.238-.216-.434-.467-.582a.886.886 0 0 0-.928-.003 1.41 1.41 0 0 0-.018-.615.95.95 0 0 0-.557-.63.852.852 0 0 0-.698.002l-.003.002c.422-1.215.78-2.771.013-3.122a.748.748 0 0 0-.617.01c-1.004.429-2.07 2.837-2.54 4.192a.23.23 0 0 0 .435.151c.79-2.268 1.748-3.689 2.286-3.92.127-.054.2-.033.245-.013.423.194.094 1.877-.734 3.758a5.668 5.668 0 0 0-.26.629l-.001.002c-.8-.007-1.57.173-2.113.646-.652.569-.905 1.419-.694 2.333.206.892.823 1.677 1.665 2.173.303.178.635.319.987.413 2.625.707 3.89-1.014 5.057-2.997 1-1.696 1.393-2.758 1.24-3.343Z" clip-rule="evenodd"/><path stroke="#fff" stroke-linecap="round" stroke-width=".305" d="M13.855 3.952 4.174 19.553"/></svg>
